X:98
T:98 The London Troop
C:Welch MS
I:abc2nwc
M:3/8
L:1/16
K:G
Bc|d2B2g2|e2c2A2|GFGABc|d2B2d2|d2B2g2|fedcBA|GFGBAF|G4Bc|
d2B2g2|e2c2A2|GFGABc|d2B2d2|d2B2g2|fedcBA|GFGBAF|G4||
AB|c2A2F2|d2B2G2|edcBAG|G2F2D2|c2A2F2|d2B2G2|e3gfa|g4AB|
c2A2F2|d2B2G2|edcBAG|G2F2D2|c2A2F2|d2B2G2|e3gfa|g4||
Bc|d2dgfg|e2egfg|f2defg|a2A2c2|B2gfed|e2dcBA|GFGBAF|G4Bc|
d2dgfg|e2egfg|f2defg|a2A2c2|B2gfed|e2dcBA|GFGBAF|G4|]

